X: 1
T: Crib Of Perches, The
Z: Theirlandais
S: https://thesession.org/tunes/1366#setting28855
R: reel
M: 4/4
L: 1/8
K: Dmix
|:A3B AGFD|(3EFG AB c2Bc|G2EC G,CEG|cAGc AGFG|
A3B AGFD|(3EFG AB c2Bc|df~f2 efdB|AFGE FDD2:|
|:df~f2 af~f2|bfaf gfed|^cdef ge^ce|ge^cA ^GAB^c|
df~f2 af~f2|defd ed^cA|(3Bcd e^c d2^cB|AFGE FDD2:|

